icons/OpenLotus/actions/16/curve-connector.svg

<?xml version="1.0" encoding="UTF-8" standalone="no"?>
<svg
   xmlns:dc="http://purl.org/dc/elements/1.1/"
   xmlns:cc="http://creativecommons.org/ns#"
   xmlns:rdf="http://www.w3.org/1999/02/22-rdf-syntax-ns#"
   xmlns:svg="http://www.w3.org/2000/svg"
   xmlns="http://www.w3.org/2000/svg"
   xmlns:sodipodi="http://sodipodi.sourceforge.net/DTD/sodipodi-0.dtd"
   xmlns:inkscape="http://www.inkscape.org/namespaces/inkscape"
   viewBox="0 0 16 16"
   version="1.1"
   id="svg8"
   sodipodi:docname="curve-connector.svg"
   inkscape:version="0.92+devel (ab74a354e7, 2017-08-02, custom)">
  <metadata
     id="metadata12">
    <rdf:RDF>
      <cc:Work
         rdf:about="">
        <dc:format>image/svg+xml</dc:format>
        <dc:type
           rdf:resource="http://purl.org/dc/dcmitype/StillImage" />
        <dc:title></dc:title>
      </cc:Work>
    </rdf:RDF>
  </metadata>
  <sodipodi:namedview
     pagecolor="#002466"
     bordercolor="#ffffff"
     inkscape:document-rotation="0"
     borderopacity="0.30196078"
     objecttolerance="10"
     gridtolerance="10"
     guidetolerance="10"
     inkscape:pageopacity="1"
     inkscape:pageshadow="2"
     inkscape:window-width="1920"
     inkscape:window-height="1051"
     id="namedview10"
     showgrid="false"
     borderlayer="true"
     inkscape:showpageshadow="false"
     inkscape:snap-page="true"
     inkscape:snap-grids="false"
     inkscape:zoom="45.9375"
     inkscape:cx="8"
     inkscape:cy="8"
     inkscape:window-x="0"
     inkscape:window-y="0"
     inkscape:window-maximized="1"
     inkscape:current-layer="g836" />
  <defs
     id="defs3051">
    <style
       type="text/css"
       id="current-color-scheme">
      .ColorScheme-Text {
        color:#f2f2f2;
      }
      .ColorScheme-Highlight {
        color:#3daee9;
      }
      </style>
  </defs>
  <g
     id="g836"
     inkscape:label="#curve-connector">
    <rect
       style="fill:none;stroke-width:1.29999995"
       id="rect838"
       width="16"
       height="16"
       x="0"
       y="0"
       inkscape:label="#boundary" />
    <path
       inkscape:label="#"
       inkscape:connector-curvature="0"
       id="path4"
       d="m 4.5,4.0058594 a 2.4999938,2.5000125 0 0 0 -2.5,2.5 2.4999938,2.5000125 0 0 0 2.5,2.5 h 7 a 1.4999963,1.5000075 0 0 1 1.5,1.4999996 1.4999963,1.5000075 0 0 1 -1.5,1.5 H 4.9140625 A 1.5,1.5 0 0 1 5,12.501953 1.5,1.5 0 0 1 4.9121094,13.005859 H 11.5 a 2.4999938,2.5000125 0 0 0 2.5,-2.5 2.4999938,2.5000125 0 0 0 -2.5,-2.4999996 h -7 a 1.4999963,1.5000075 0 0 1 -1.5,-1.5 1.4999963,1.5000075 0 0 1 1.5,-1.5 h 6.589844 A 1.5,1.5 0 0 1 11,4.5019531 1.5,1.5 0 0 1 11.085938,4.0058594 Z"
       style="opacity:0.6;fill:#d0d0d0;fill-opacity:1;stroke:none" />
    <path
       inkscape:label="#"
       id="path828"
       d="m 12.5,3.0019531 a 1.5,1.5 0 0 0 -1.5,1.5 1.5,1.5 0 0 0 1.5,1.5 1.5,1.5 0 0 0 1.5,-1.5 1.5,1.5 0 0 0 -1.5,-1.5 z m -9,7.9999999 a 1.5,1.5 0 0 0 -1.5,1.5 1.5,1.5 0 0 0 1.5,1.5 1.5,1.5 0 0 0 1.5,-1.5 1.5,1.5 0 0 0 -1.5,-1.5 z"
       style="fill:#00ff00;fill-opacity:1;stroke:none"
       inkscape:connector-curvature="0" />
  </g>
</svg>

<svg xmlns="http://www.w3.org/2000/svg" viewBox="0 0 16 16">
  <defs id="defs3051">
    <style type="text/css" id="current-color-scheme">
      .ColorScheme-Text {
        color:#f2f2f2;
      }
      .ColorScheme-Highlight {
        color:#3daee9;
      }
      </style>
  </defs>
  <path 
        style="fill:currentColor;fill-opacity:1;stroke:none"
        d="M 4.5 4.0058594 A 2.4999938 2.5000125 0 0 0 2 6.5058594 A 2.4999938 2.5000125 0 0 0 4.5 9.0058594 L 11.5 9.0058594 A 1.4999963 1.5000075 0 0 1 13 10.505859 A 1.4999963 1.5000075 0 0 1 11.5 12.005859 L 4 12.005859 L 4 13.005859 L 11.5 13.005859 A 2.4999938 2.5000125 0 0 0 14 10.505859 A 2.4999938 2.5000125 0 0 0 11.5 8.0058594 L 4.5 8.0058594 A 1.4999963 1.5000075 0 0 1 3 6.5058594 A 1.4999963 1.5000075 0 0 1 4.5 5.0058594 L 12 5.0058594 L 12 4.0058594 L 4.5 4.0058594 z "
        class="ColorScheme-Text"
        />
  <path 
        style="fill:currentColor;fill-opacity:1;stroke:none"
        d="M 12.5 3.0019531 A 1.5 1.5 0 0 0 11 4.5019531 A 1.5 1.5 0 0 0 12.5 6.0019531 A 1.5 1.5 0 0 0 14 4.5019531 A 1.5 1.5 0 0 0 12.5 3.0019531 z M 12.5 4.0019531 A 0.50000025 0.500001 0 0 1 13 4.5019531 A 0.50000025 0.500001 0 0 1 12.5 5.0019531 A 0.50000025 0.500001 0 0 1 12 4.5019531 A 0.50000025 0.500001 0 0 1 12.5 4.0019531 z M 3.5 11.001953 A 1.5 1.5 0 0 0 2 12.501953 A 1.5 1.5 0 0 0 3.5 14.001953 A 1.5 1.5 0 0 0 5 12.501953 A 1.5 1.5 0 0 0 3.5 11.001953 z M 3.5 12.001953 A 0.50000025 0.500001 0 0 1 4 12.501953 A 0.50000025 0.500001 0 0 1 3.5 13.001953 A 0.50000025 0.500001 0 0 1 3 12.501953 A 0.50000025 0.500001 0 0 1 3.5 12.001953 z "
        class="ColorScheme-Highlight"
        />
</svg>
